X: 15788
T: Goodbye Johnny Dear
R: waltz
M: 3/4
K: Gmajor
B6|B6|A4 G2|G4 B2|
d4 e2|d4 B2|d6|d6|
e4 f2|g4 f2|e4 d2|B<G G4|
B4 A2|A4 B2|A6|A6|
B6|B4 A2|A4 G2|G4 B2|
d4 e2|d4 B2|d6|d6|
e4 f2|g4 f2|e4 d2|B4 G2|
A4 G2|G4 A2|G6|G6||

